src/assets/icons/biz-money,simple,tag.svg

<svg width="48" height="48" viewBox="0 0 48 48" fill="none" xmlns="http://www.w3.org/2000/svg">
<rect opacity="0.2" x="5" y="5" width="38" height="38" rx="4" fill="black"/>
<mask id="mask0_45:376" style="mask-type:alpha" maskUnits="userSpaceOnUse" x="5" y="5" width="38" height="38">
<rect x="5" y="5" width="38" height="38" rx="4" fill="#9FA4A9"/>
</mask>
<g mask="url(#mask0_45:376)">
<circle opacity="0.2" cx="32.334" cy="16.0208" r="2" transform="rotate(45 32.334 16.0208)" fill="black"/>
<path fill-rule="evenodd" clip-rule="evenodd" d="M25.5056 11.7782C24.4448 11.7782 23.4274 12.1996 22.6772 12.9497L10.4137 25.2132C9.6327 25.9943 9.6327 27.2606 10.4137 28.0416L20.3132 37.9411C21.0943 38.7222 22.3606 38.7222 23.1417 37.9411L35.4051 25.6777C36.1553 24.9275 36.5767 23.9101 36.5767 22.8492L36.5767 13.7782C36.5767 12.6736 35.6813 11.7782 34.5767 11.7782L25.5056 11.7782ZM30.9198 14.6066C30.1388 15.3877 30.1388 16.654 30.9198 17.435C31.7009 18.2161 32.9672 18.2161 33.7483 17.435C34.5293 16.654 34.5293 15.3877 33.7483 14.6066C32.9672 13.8256 31.7009 13.8256 30.9198 14.6066Z" fill="black"/>
</g>
</svg>

<svg xmlns="http://www.w3.org/2000/svg" width="48" height="48" fill="none" viewBox="0 0 48 48">
  <rect width="38" height="38" x="5" y="5" fill="#000" opacity=".2" rx="4"/>
  <mask id="a" width="38" height="38" x="5" y="5" maskUnits="userSpaceOnUse" style="mask-type:alpha">
    <rect width="38" height="38" x="5" y="5" fill="#9FA4A9" rx="4"/>
  </mask>
  <g mask="url(#a)">
    <circle cx="32.334" cy="16.021" r="2" fill="#000" opacity=".2" transform="rotate(45 32.334 16.02)"/>
    <path fill="#000" fill-rule="evenodd" d="M25.506 11.778a4 4 0 00-2.829 1.172L10.414 25.213a2 2 0 000 2.829l9.9 9.9a2 2 0 002.828 0l12.263-12.264a4 4 0 001.172-2.829v-9.07a2 2 0 00-2-2h-9.071zm5.414 2.829a2 2 0 102.828 2.828 2 2 0 00-2.828-2.828z" clip-rule="evenodd"/>
  </g>
</svg>
